X: 12005
T: Eonach Mhic Coilín
R: reel
M: 4/4
K: Eminor
GA|BE E2 DEGA|BEE2 d2 BA|BE E2 DEGA|BGdB A2 GA|
BEE2 DEGA|BEE2 d2 BA|BEE2 DEGA|BGdB A2||
GA|Beed BAGA|Bdef g3 z|Beed BAGA|BGdB A2GA|
Beed BAGA|Bdef g3 a|bgfa gfed|efdB A2||

